X:1
T: Colonel Ridley's Quickstep
C:
R:Jig
Q:180
K:A
M:6/8
L:1/16
|:ed|c4A2 A2B2c2|B2G2E2 E4d2|c2A2c2 e2d2c2|B4B2 B2e2d2|c4A2 A2B2c2|B2G2E2 E4d2|cde2c2 d2B2G2|A4A2 A4ed|
c2d2e2 e2d2c2|d2e2f2 f2e2d2|c2A2c2 e2d2c2|B4B2 B2e2d2|c2d2e2 e2d2c2|d2e2f2 f2g2a2|e2c2e2 d2B2G2|A4A2 A4:|
